assets/overrides/fame.svg

<svg width="40" height="40" viewBox="0 0 40 40" fill="none" xmlns="http://www.w3.org/2000/svg">
<path d="M20 40C31.0457 40 40 31.0457 40 20C40 8.95431 31.0457 0 20 0C8.95431 0 0 8.95431 0 20C0 31.0457 8.95431 40 20 40Z" fill="white"/>
<path d="M20 40C31.0457 40 40 31.0457 40 20C40 8.95431 31.0457 0 20 0C8.95431 0 0 8.95431 0 20C0 31.0457 8.95431 40 20 40Z" fill="url(#paint0_linear)"/>
<path d="M23.988 8.88699H16.75C14.973 8.88699 13.484 9.41699 12.429 10.492C11.382 11.559 10.87 13.052 10.87 14.83V25.595C10.87 28.835 13.57 31.51 16.833 31.51H16.924C19.662 31.467 22.015 29.505 22.618 26.9L22.635 26.826H22.611C25.873 26.826 28.573 24.151 28.573 20.911V20.811C28.5614 20.1818 28.4542 19.558 28.255 18.961L28.243 18.925L28.253 18.915C29.3153 17.8083 29.9124 16.336 29.921 14.802C29.921 11.541 27.255 8.88699 23.987 8.88699H23.988Z" fill="black"/>
<path d="M16.751 10.474H23.988C26.381 10.474 28.335 12.419 28.335 14.802C28.335 16.058 27.761 17.28 26.792 18.117L26.358 18.492L26.657 19.212C26.864 19.714 26.987 20.318 26.987 20.911C26.987 23.271 25.001 25.238 22.612 25.238H21.229L21.165 25.963C20.971 28.166 19.061 29.923 16.834 29.923C14.444 29.923 12.459 27.955 12.459 25.595V14.83C12.459 13.44 12.834 12.348 13.563 11.604C14.295 10.859 15.373 10.474 16.751 10.474Z" fill="#FF00D6"/>
<defs>
<linearGradient id="paint0_linear" x1="10.0016" y1="37.3176" x2="29.9984" y2="2.6028" gradientUnits="userSpaceOnUse">
<stop stop-color="#24FF00"/>
<stop offset="1" stop-color="#F5CDFF" stop-opacity="0.502"/>
</linearGradient>
</defs>
</svg>

<svg width="40" height="40" xmlns="http://www.w3.org/2000/svg" xmlns:xlink="http://www.w3.org/1999/xlink">
    <defs>
        <linearGradient x1="25.004%" y1="93.294%" x2="74.996%" y2="6.507%" id="b">
            <stop stop-color="#24FF00" offset="0%"/>
            <stop stop-color="#F5CDFF" stop-opacity=".502" offset="100%"/>
        </linearGradient>
        <path d="M2.814 10.078C8.294.586 20.43-2.666 29.922 2.814c9.492 5.48 12.744 17.617 7.264 27.108-5.48 9.492-17.617 12.744-27.108 7.264C.586 31.706-2.666 19.57 2.814 10.078z" id="a"/>
    </defs>
    <g fill-rule="nonzero" fill="none">
        <use fill="#FFF" xlink:href="#a"/>
        <use fill="url(#b)" xlink:href="#a"/>
        <path d="M23.988 8.887H16.75c-1.777 0-3.266.53-4.321 1.605-1.047 1.067-1.559 2.56-1.559 4.338v10.765c0 3.24 2.7 5.915 5.963 5.915h.091c2.738-.043 5.091-2.005 5.694-4.61l.017-.074h-.024c3.262 0 5.962-2.675 5.962-5.915v-.1a6.204 6.204 0 00-.318-1.85l-.012-.036.01-.01a5.988 5.988 0 001.668-4.113c0-3.261-2.666-5.915-5.934-5.915z" fill="#000"/>
        <path d="M16.751 10.474h7.237c2.393 0 4.347 1.945 4.347 4.328 0 1.256-.574 2.478-1.543 3.315l-.434.375.299.72c.207.502.33 1.106.33 1.699 0 2.36-1.986 4.327-4.375 4.327h-1.383l-.064.725c-.194 2.203-2.104 3.96-4.331 3.96-2.39 0-4.375-1.968-4.375-4.328V14.83c0-1.39.375-2.482 1.104-3.226.732-.745 1.81-1.13 3.188-1.13z" fill="#FF00D6"/>
    </g>
</svg>
